findly-builder/apps/searchassist/src/assets/icons/sidemenu/new-icons/answer-snippet.svg

<svg width="16" height="16" viewBox="0 0 16 16" fill="none" xmlns="http://www.w3.org/2000/svg">
<path d="M2.5 1C1.67578 1 1 1.67578 1 2.5V7.5C1 8.32422 1.67578 9 2.5 9H2.99219V11L5.66406 9H6V11.5C6 12.3242 6.67578 13 7.5 13H10.3398L13.0039 15V13H13.5C14.3242 13 15 12.3242 15 11.5V6.5C15 5.67578 14.3242 5 13.5 5H10V2.5C10 1.67578 9.32422 1 8.5 1H2.5ZM2.5 2H8.5C8.78125 2 9 2.21875 9 2.5V7.5C9 7.78125 8.78125 8 8.5 8H5.32812L3.99219 9V8H2.5C2.21875 8 2 7.78125 2 7.5V2.5C2 2.21875 2.21875 2 2.5 2ZM5.5 3C4.67578 3 4 3.67578 4 4.5C4 5.32422 4.67578 6 5.5 6C5.67578 6 5.84375 5.96094 6 5.90625V7H7V4.5C7 3.67578 6.32422 3 5.5 3ZM5.5 4C5.78125 4 6 4.21875 6 4.5C6 4.78125 5.78125 5 5.5 5C5.21875 5 5 4.78125 5 4.5C5 4.21875 5.21875 4 5.5 4ZM10 6H13.5C13.7812 6 14 6.21875 14 6.5V11.5C14 11.7812 13.7812 12 13.5 12H12.0039V13L10.6719 12H7.5C7.21875 12 7 11.7812 7 11.5V9H8.5C8.67578 9 8.84375 8.96094 9 8.90625V11H10V10H11V11H12V8.5C12 7.67578 11.3242 7 10.5 7C10.3242 7 10.1562 7.03906 10 7.09375V6ZM10.5 8C10.7812 8 11 8.21875 11 8.5V9H10V8.5C10 8.21875 10.2188 8 10.5 8Z" fill="#202124"/>
</svg>

<svg width="16" height="16" fill="none" xmlns="http://www.w3.org/2000/svg"><path d="M2.5 1C1.676 1 1 1.676 1 2.5v5C1 8.324 1.676 9 2.5 9h.492v2l2.672-2H6v2.5c0 .824.676 1.5 1.5 1.5h2.84l2.664 2v-2h.496c.824 0 1.5-.676 1.5-1.5v-5c0-.824-.676-1.5-1.5-1.5H10V2.5C10 1.676 9.324 1 8.5 1h-6Zm0 1h6c.281 0 .5.219.5.5v5c0 .281-.219.5-.5.5H5.328L3.992 9V8H2.5a.494.494 0 0 1-.5-.5v-5c0-.281.219-.5.5-.5Zm3 1C4.676 3 4 3.676 4 4.5S4.676 6 5.5 6c.176 0 .344-.04.5-.094V7h1V4.5C7 3.676 6.324 3 5.5 3Zm0 1c.281 0 .5.219.5.5s-.219.5-.5.5a.494.494 0 0 1-.5-.5c0-.281.219-.5.5-.5ZM10 6h3.5c.281 0 .5.219.5.5v5c0 .281-.219.5-.5.5h-1.496v1l-1.332-1H7.5a.494.494 0 0 1-.5-.5V9h1.5c.176 0 .344-.04.5-.094V11h1v-1h1v1h1V8.5c0-.824-.676-1.5-1.5-1.5-.176 0-.344.04-.5.094V6Zm.5 2c.281 0 .5.219.5.5V9h-1v-.5c0-.281.219-.5.5-.5Z" fill="#202124"/></svg>
